build/assets/images/bnt/icon-danger.svg

<?xml version="1.0" encoding="UTF-8"?>
<svg width="36px" height="31px" viewBox="0 0 36 31" version="1.1" xmlns="http://www.w3.org/2000/svg" xmlns:xlink="http://www.w3.org/1999/xlink">
    <!-- Generator: Sketch 58 (84663) - https://sketch.com -->
    <title>danger</title>
    <desc>Created with Sketch.</desc>
    <g id="Private-CEO" stroke="none" stroke-width="1" fill="none" fill-rule="evenodd">
        <g id="7-Lotes-CEO" transform="translate(-1087.000000, -298.000000)">
            <g id="Warning" transform="translate(1074.000000, 282.000000)">
                <g id="danger" transform="translate(13.000000, 16.000000)">
                    <path d="M35.6831719,27.5918486 L19.888875,1.10462385 C19.4897109,0.435208716 18.7730156,0.0258807339 17.9999297,0.0258807339 C17.2269141,0.0258807339 16.5101484,0.435137615 16.1109844,1.10462385 L0.316828125,27.5918486 C-0.0939375,28.2807454 -0.106101562,29.14 0.285117188,29.8404151 C0.676335938,30.5409014 1.4101875,30.9740482 2.20570313,30.9740482 L33.7942266,30.9740482 C34.5897422,30.9740482 35.3235937,30.5408303 35.7148125,29.8404151 C36.1061016,29.1399289 36.0939375,28.2807454 35.6831719,27.5918486 Z" id="Path" fill="#00327C"></path>
                    <path d="M17.9999297,0.0259518349 C17.2269141,0.0259518349 16.5101484,0.435208716 16.1109844,1.10469495 L0.316828125,27.5918486 C-0.0939375,28.2807454 -0.106101562,29.14 0.285117188,29.8404151 C0.676335938,30.5409014 1.4101875,30.9740482 2.20570313,30.9740482 L17.9999297,30.9740482 L17.9999297,0.0259518349 L17.9999297,0.0259518349 Z" id="Path" fill="#00327C"></path>
                    <path d="M31.3119844,28.0700023 L4.71853125,28.0700023 C4.46603906,28.0700023 4.23260156,27.9342706 4.10554688,27.7136445 C3.97849219,27.4929472 3.97708594,27.2206307 4.10167969,26.9986537 L17.3833594,3.34373394 C17.5093594,3.11941055 17.7446953,2.98062156 17.9997891,2.98062156 C17.9998594,2.98062156 18,2.98062156 18.0000703,2.98062156 C18.2550234,2.98062156 18.4904297,3.11898394 18.6165,3.34316514 L31.9283437,26.9980138 C32.0532891,27.2200619 32.0520234,27.4925206 31.9250391,27.7133601 C31.7980547,27.9341995 31.5645469,28.0700023 31.3119844,28.0700023 Z M5.93690625,26.6355413 L30.0922734,26.6355413 L18.0009141,5.14934174 L5.93690625,26.6355413 Z" id="Shape" fill="#FFFFFF" fill-rule="nonzero"></path>
                    <path d="M18.0234141,26.6355413 L5.93690625,26.6355413 L18.0008438,5.14941284 L18.0001406,2.98076376 L17.9997891,2.98076376 C17.7446953,2.98076376 17.5092891,3.11948165 17.3833594,3.34387615 L4.10175,26.9985826 C3.97708594,27.2206307 3.9785625,27.4929472 4.10561719,27.7135734 C4.23267188,27.9342706 4.46610938,28.0699312 4.71860156,28.0699312 L18.0234141,28.0699312 L18.0234141,26.6354702 L18.0234141,26.6354702 L18.0234141,26.6355413 Z" id="Path" fill="#FFFFFF"></path>
                    <path d="M19.6427812,24.0948922 C19.6427812,24.9725619 18.9018984,25.7431537 18.0340312,25.7431537 C17.1026719,25.7431537 16.4040469,24.9725619 16.4040469,24.0948922 C16.4040469,23.1958922 17.1026016,22.4466307 18.0340312,22.4466307 C18.9018281,22.4466307 19.6427812,23.1958211 19.6427812,24.0948922 Z M19.2405937,20.0277775 C19.2405937,20.6913624 18.520875,20.9695803 18.0127969,20.9695803 C17.3354062,20.9695803 16.7639063,20.6912913 16.7639063,20.0277775 C16.7639063,17.4805161 16.4676094,13.8200986 16.4676094,11.2728372 C16.4676094,10.4380413 17.145,9.96706881 18.0128672,9.96706881 C18.8384062,9.96706881 19.5370312,10.4379702 19.5370312,11.2728372 C19.5368906,13.8200986 19.2405937,17.4805161 19.2405937,20.0277775 Z" id="Shape" fill="#FFFFFF" fill-rule="nonzero"></path>
                </g>
            </g>
        </g>
    </g>
</svg>

<svg xmlns="http://www.w3.org/2000/svg" width="36" height="30.948" viewBox="0 0 36 30.948">
  <defs>
    <style>
      .cls-1 {
        fill: #eb0029;
      }

      .cls-1, .cls-3 {
        fill-rule: evenodd;
      }

      .cls-2, .cls-3 {
        fill: #fff;
      }
    </style>
  </defs>
  <g id="_7-Lotes-CEO" data-name="7-Lotes-CEO" transform="translate(-1077 -145.026)">
    <g id="Warning" transform="translate(1064 129)">
      <g id="danger" transform="translate(13 16)">
        <path id="Path" class="cls-1" d="M35.683,27.592,19.889,1.1a2.193,2.193,0,0,0-3.778,0L.317,27.592A2.252,2.252,0,0,0,.285,29.84a2.2,2.2,0,0,0,1.921,1.134H33.794a2.2,2.2,0,0,0,1.921-1.134A2.252,2.252,0,0,0,35.683,27.592Z"/>
        <path id="Path-2" data-name="Path" class="cls-1" d="M18,.026A2.2,2.2,0,0,0,16.111,1.1L.317,27.592A2.252,2.252,0,0,0,.285,29.84a2.2,2.2,0,0,0,1.921,1.134H18V.026Z"/>
        <path id="Shape" class="cls-2" d="M31.312,28.07H4.719a.708.708,0,0,1-.613-.356A.724.724,0,0,1,4.1,27L17.383,3.344A.708.708,0,0,1,18,2.981h0a.708.708,0,0,1,.616.363L31.928,27a.724.724,0,0,1,0,.715A.708.708,0,0,1,31.312,28.07ZM5.937,26.635H30.092L18,5.149Z"/>
        <path id="Path-3" data-name="Path" class="cls-3" d="M18.023,26.635H5.937L18,5.149V2.981h0a.707.707,0,0,0-.616.363L4.1,27a.724.724,0,0,0,0,.715.708.708,0,0,0,.613.356h13.3V26.635Z"/>
        <path id="Shape-2" data-name="Shape" class="cls-2" d="M19.643,24.095a1.664,1.664,0,0,1-1.609,1.648,1.649,1.649,0,1,1,1.609-1.648Zm-.4-4.067c0,.664-.72.942-1.228.942-.677,0-1.249-.278-1.249-.942,0-2.547-.3-6.208-.3-8.755,0-.835.677-1.306,1.545-1.306a1.365,1.365,0,0,1,1.524,1.306C19.537,13.82,19.241,17.48,19.241,20.028Z"/>
      </g>
    </g>
  </g>
</svg>
